svgs/sharp-thin/list-dropdown.svg

<svg xmlns="http://www.w3.org/2000/svg" viewBox="0 0 512 512"><!--! Font Awesome Pro 6.6.0 by @fontawesome - https://fontawesome.com License - https://fontawesome.com/license (Commercial License) Copyright 2024 Fonticons, Inc. --><path d="M16 48l0 128 480 0 0-128L16 48zm0 144l0 272 480 0 0-272L16 192zM0 32l16 0 480 0 16 0 0 16 0 416 0 16-16 0L16 480 0 480l0-16L0 48 0 32zM120 272l272 0 8 0 0 16-8 0-272 0-8 0 0-16 8 0zm0 96l272 0 8 0 0 16-8 0-272 0-8 0 0-16 8 0zM349 89.8l35 28 35-28 6.2-5 10 12.5-6.2 5-40 32-5 4-5-4-40-32-6.2-5 10-12.5 6.2 5z"/></svg>

<svg xmlns="http://www.w3.org/2000/svg" viewBox="0 0 512 512"><!--! Font Awesome Pro 6.5.2 by @fontawesome - https://fontawesome.com License - https://fontawesome.com/license (Commercial License) Copyright 2024 Fonticons, Inc. --><path d="M16 48V176H496V48H16zm0 144V464H496V192H16zM0 32H16 496h16V48 464v16H496 16 0V464 48 32zM120 272H392h8v16h-8H120h-8V272h8zm0 96H392h8v16h-8H120h-8V368h8zM349 89.8l35 28 35-28 6.2-5 10 12.5-6.2 5-40 32-5 4-5-4-40-32-6.2-5 10-12.5 6.2 5z"/></svg>
